X:1
T:Title
%%score { ( 1 4 ) | ( 2 3 ) }
L:1/8
M:3/4
K:Bb
V:1 treble nm="Grand Piano"
V:4 treble 
V:2 bass 
V:3 bass 
V:1
 z2 z2[Q:1/4=108] [DF]2 | B4 F2 | c4 F2 | d2 c2 B2 | c4 [CF]2 | [B,=EB]4 [CFA]2 | [DG]4 [CF]2 | %7
 [B,DG]2 F2 =E2 | F4 A2 | B3 A G2 | d4 D2 | E3 D E2 | z2 z2 F2 | [FB]2 F2 G2 | F2 E2 D2 | %15
 c2 B2 A2 |[M:2/4] [DB]4 |] %17
V:2
 z2 z2 [B,,B,]2 | [B,DF]4 [B,D]2 | [A,CF]4 [A,C]2 | F4[K:bass] z2 | [F,A,F]4 A,,2 | G,,4 F,,2 | %6
 B,,4 A,,2 | B,,2 [C,A,C]2 [C,G,C]2 | [F,A,]4 [D,^F,D]2 | [G,D]4 z2 | [^F,A,D]4 [G,B,]2 | %11
 [C,G,C]4 [F,A,]2 | [B,,F,B,]4 [F,A,C]2 | [D,B,]4 [E,B,E]2 | [D,B,]2 z2 z2 | [E,G,C]2 D2 [CE]2 | %16
[M:2/4] [B,,B,]4 |] %17
V:3
 x6 | x6 | x6 | B,2[K:bass] [A,C]2 [G,=E]2 | x6 | x6 | x6 | x6 | x6 | z2 z A, [G,B,D]2 | x6 | x6 | %12
 x6 | x6 | F,2- [C,F,A,]2 [B,,F,B,]2 | z2 F,4 |[M:2/4] x4 |] %17
V:4
 x6 | x6 | x6 | x6 | x6 | x6 | x6 | x6 | x6 | x6 | x6 | x6 | D4 z z/ E,/ | x6 | x6 | x6 | %16
[M:2/4] x4 |] %17

